X: 4442
M: 3/4
L: 1/8
K: F
|: !p!\
c>=B c2 ^c2 | e2 "^>"d4 !p!|\
(d^c)defg | (=c=B)cdef |\
[1 (BA)BdcB | ACDEFG :|\
[2 !f!(BA) B2 [e2B2] | [f2A2] F2 z2 H|]
|: !mf!\
(FG)=Bd g2 | EGceg2 |\
[1 agfedc | c=BdBAG :|\
[2 ad f2 =B2 | c2 [c2E2] "^D.C."z2 |]
P: Trio.
K: Bb
|: !p!\
f>=e (f2 ^f2) | g2 G3 c |\
[1 B2 A3 a | g2 f4 :|\
[2 BA^GAdc | B2 [B2D2] "_D.C."z2 |]


